X: 78
T: Missa Inviolata / Kyrie
N: Derived from Rue1017a-Missa_Inviolata-Kyrie.krn
C: Pierre de la Rue
%%abc-version 2.0
%%abcx-abcm2ps-target-version 5.9.1 (29 Sep 2008)
%%abc-creator hum2abc beta
%%abcx-conversion-date 2019/02/17 08:01:13
%%abc-edited-by Jesse Rodin
%%abc-edited-by Chris Gage 05-14-2013
%%abcx-initial-encoding-date 2013/07/24/
%%humdrum-veritas 2242676048
%%humdrum-veritas-data 2642371328
%%linebreak <none>
%%barnumbers 0
L: 1/4
M: 4/2
Q: 1/2=120
%%staves [1 2 3 4]
V: 1 clef=treble
V: 2 clef=treble
V: 3 clef=treble-8
V: 4 clef=bass
K: C
[V:1] c8 | 
[V:2] G6G2 | 
[V:3] z4c4 | 
[V:4] C8 | 
[V:1] c4c4 | 
[V:2] A4A4 | 
[V:3] c2e4dc | 
[V:4] A,8 | 
[V:1] d6ed | 
[V:2] B6cB | 
[V:3] g2fed4 | 
[V:4] G,8 | 
[V:1] e8 | 
[V:2] c2BAG3A | 
[V:3] c8 | 
[V:4] C,4z2C2 | 
[V:1] z8 | 
[V:2] B2c4BA | 
[V:3] f6e2- | 
[V:4] B,2A,4G,F, | 
[V:1] z4f4- | 
[V:2] G4z2A2- | 
[V:3] e2c2d3c | 
[V:4] E,4D,4 | 
[V:1] f2e4c2 | 
[V:2] A2A2E2A2 | 
[V:3] A4z2e2 | 
[V:4] z4A,4 | 
[V:1] d3cA2e2 | 
[V:2] F3GA4 | 
[V:3] d2f3ec2 | 
[V:4] _B,3A,F,2A,2 | 
[V:1] d2f3ed2- | 
[V:2] F3GA4 | 
[V:3] d3cA4 | 
[V:4] _B,3A,F,3G, | 
[V:1] d2c2d3c | 
[V:2] z2A2F3G | 
[V:3] z2e2d2f2- | 
[V:4] A,2zA,_B,3A, | 
[V:1] ABcde4 | 
[V:2] A2G4E2 | 
[V:3] fed4^c2 | 
[V:4] F,2G,2E,4 | 
[V:1] z2A2B2d2- | 
[V:2] F8 | 
[V:3] d8- | 
[V:4] D,8 | 
[V:1] dc/B/A2G2g2- | 
[V:2] F4G4 | 
[V:3] d4z4 | 
[V:4] z2D,2E,2G,2- | 
[V:1] g2f2e2dc | 
[V:2] E2F2G4 | 
[V:3] z2d2e2g2- | 
[V:4] G,F,D,2C,4 | 
[V:1] B4z2e2 | 
[V:2] G,4z4 | 
[V:3] gfd2e2c2 | 
[V:4] z2G,3F,E,2 | 
[V:1] f2d2e2dc | 
[V:2] z4G4- | 
[V:3] d2B2c2d2 | 
[V:4] D,4C,2G,2- | 
[V:1] B2zef2d2 | 
[V:2] G4F4 | 
[V:3] G2c2d2B2 | 
[V:4] G,F,E,2D,4 | 
[V:1] e2dcB4 | 
[V:2] z2G3FE2 | 
[V:3] c2d2G2ze | 
[V:4] C,2G,3A,B,C | 
[V:1] z8 | 
[V:2] D4C4 | 
[V:3] f2d2e2dc | 
[V:4] D2B,2C2B,A, | 
[V:1] z2e2f2d2 | 
[V:2] G4z4 | 
[V:3] B2c2d4 | 
[V:4] G,2C4B,2 | 
[V:1] e2dcB2zc | 
[V:2] G2G3FE2 | 
[V:3] c4z2e2 | 
[V:4] C3B,G,2A,2 | 
[V:1] d2B2c2BA | 
[V:2] D4G2G2- | 
[V:3] f2d2e2dc | 
[V:4] D,2G,2C,2G,2- | 
[V:1] G2c4B2 | 
[V:2] GFF2G4 | 
[V:3] B2c2d4 | 
[V:4] G,2A,2G,4 | 
[V:1] c8 ||  
[V:2] G8 ||  
[V:3] c8 ||  
[V:4] C,8 ||  
[V:1]  [K:C] [K:clef=treble][M:4/2]z8 | 
[V:2]  [K:C] [K:clef=treble][M:4/2]C8 | 
[V:3]  [K:C] [K:clef=treble-8][M:4/2]z8 | 
[V:4]  [K:C] [K:clef=bass][M:4/2]z8 | 
[V:1] z4c4- | 
[V:2] E4F4 | 
[V:3] z8 | 
[V:4] z8 | 
[V:1] c4e4 | 
[V:2] E4z2E2 | 
[V:3] z8 | 
[V:4] z8 | 
[V:1] f4e4 | 
[V:2] DCDB,C2G2- | 
[V:3] z8 | 
[V:4] z8 | 
[V:1] z2e2dcdB | 
[V:2] G2E2F2D2 | 
[V:3] z8 | 
[V:4] z8 | 
[V:1] c2g4e2 | 
[V:2] E3FG2A2- | 
[V:3] z8 | 
[V:4] z8 | 
[V:1] f2d2e4- | 
[V:2] A2F2G2CD | 
[V:3] z8 | 
[V:4] z8 | 
[V:1] e2c2e2f2 | 
[V:2] E2F2G4- | 
[V:3] c8 | 
[V:4] z8 | 
[V:1] g2e4d2 | 
[V:2] G4A4 | 
[V:3] e4f4 | 
[V:4] z8 | 
[V:1] e8 | 
[V:2] z2G3FED | 
[V:3] e4c2e2- | 
[V:4] z4E,4 | 
[V:1] z8 | 
[V:2] C2B,3CDB, | 
[V:3] e2g2f4 | 
[V:4] E,4D,4 | 
[V:1] z4e4 | 
[V:2] C2G2E2G2- | 
[V:3] e8 | 
[V:4] C,6E,2- | 
[V:1] edcBA4 | 
[V:2] GFE4D2 | 
[V:3] z8 | 
[V:4] E,2G,2F,4 | 
[V:1] G3AB2c2 | 
[V:2] E8 | 
[V:3] z4g4 | 
[V:4] E,8 | 
[V:1] d2e4d2 | 
[V:2] z8 | 
[V:3] g4f4 | 
[V:4] z8 | 
[V:1] e4g4 | 
[V:2] z8 | 
[V:3] e3dcBc2 | 
[V:4] z4E,4 | 
[V:1] g4f4 | 
[V:2] z8 | 
[V:3] G2c4B2 | 
[V:4] E,4D,4 | 
[V:1] e4d2e2- | 
[V:2] z4G4 | 
[V:3] c4z4 | 
[V:4] C,4G,3A, | 
[V:1] e2dcd4 | 
[V:2] G4F4 | 
[V:3] z8 | 
[V:4] B,2C4B,2 | 
[V:1] z2G2A2c2- | 
[V:2] E2G4F2 | 
[V:3] z4c4 | 
[V:4] C4A,4 | 
[V:1] c2BAB4- | 
[V:2] G8- | 
[V:3] d6e2- | 
[V:4] G,8- | 
[V:1] B4B4 | 
[V:2] G8 | 
[V:3] e2dcd4 | 
[V:4] G,8 | 
[V:1] e4d2e2- | 
[V:2] E4z2C2 | 
[V:3] c4g4- | 
[V:4] z2C2B,2C2- | 
[V:1] e2dcB2d2- | 
[V:2] E2F2G4 | 
[V:3] g4g4 | 
[V:4] C2B,A,G,2F,E, | 
[V:1] d2c4B2 | 
[V:2] A4G4- | 
[V:3] f4d4 | 
[V:4] D,2F,2G,4 | 
[V:1] c4g4- | 
[V:2] G4z2C2 | 
[V:3] e4d2e2- | 
[V:4] C,2C2B,2C2- | 
[V:1] g4g4 | 
[V:2] E2F2G4 | 
[V:3] e2dcB2d2- | 
[V:4] C2B,A,G,2F,E, | 
[V:1] f4d4 | 
[V:2] A4G4 | 
[V:3] d2c4B2 | 
[V:4] D,4G,4 | 
[V:1] e8- | 
[V:2] z2G2A2c2- | 
[V:3] c8- | 
[V:4] C,8- | 
[V:1] e8- | 
[V:2] c2B2A4 | 
[V:3] c8- | 
[V:4] C,8- | 
[V:1] e8 ||  
[V:2] G8 ||  
[V:3] c8 ||  
[V:4] C,8 ||  
[V:1]  [K:C] [K:clef=treble][M:4/2]c6BA | 
[V:2]  [K:C] [K:clef=treble][M:4/2]G4G2E2- | 
[V:3]  [K:C] [K:clef=treble-8][M:4/2]e8 | 
[V:4]  [K:C] [K:clef=bass][M:4/2]C,8 | 
[V:1] G2A2B3c | 
[V:2] E2DCB,2G2- | 
[V:3] e4d4- | 
[V:4] E,2F,2G,4- | 
[V:1] d2e2f4 | 
[V:2] GFG2A2B2 | 
[V:3] d4d4 | 
[V:4] G,2F,E,D,4 | 
[V:1] e2g3fe2- | 
[V:2] c4z4 | 
[V:3] c8 | 
[V:4] z2C3B,A,G, | 
[V:1] e2dcB3G | 
[V:2] C4D2E2- | 
[V:3] e2f2g4- | 
[V:4] A,4G,4- | 
[V:1] B2c2d4 | 
[V:2] E2DCB,3A, | 
[V:3] g2fed4 | 
[V:4] G,4G,4 | 
[V:1] G3ABAd2- | 
[V:2] C3B,G,2B,2 | 
[V:3] z2g3fed | 
[V:4] z8 | 
[V:1] d2^c2d4 | 
[V:2] A,4z2A2- | 
[V:3] e4d4 | 
[V:4] z4z2D,2- | 
[V:1] z8 | 
[V:2] AGA2B2A2- | 
[V:3] z8 | 
[V:4] D,E,F,2G,2A,2 | 
[V:1] d4c2A2- | 
[V:2] A2^G2A4 | 
[V:3] z4z2A2- | 
[V:4] B,4A,3G, | 
[V:1] A2G2F2E2 | 
[V:2] z4z2A2- | 
[V:3] ABc2d2e2 | 
[V:4] F,2E,2F,E,C,2 | 
[V:1] z2d2e2g2- | 
[V:2] A2F2G3F | 
[V:3] f4e3d | 
[V:4] D,4C,4 | 
[V:1] gfd2edcB | 
[V:2] EDG3DG2- | 
[V:3] c2B2cBAG | 
[V:4] z8 | 
[V:1] c4z2g2 | 
[V:2] G2^F2G4 | 
[V:3] A4G4 | 
[V:4] C4B,2G,2 | 
[V:1] fe2cd2e2- | 
[V:2] c4B2G2 | 
[V:3] z4g4 | 
[V:4] A,4G,4 | 
[V:1] e2d4c2 | 
[V:2] A4G4 | 
[V:3] f2d2e4 | 
[V:4] z4z2C2 | 
[V:1] d2B2c2A2 | 
[V:2] z2G4F2 | 
[V:3] d4z4 | 
[V:4] B,2G,2A,4 | 
[V:1] B4z2d2 | 
[V:2] G2E2F2A2- | 
[V:3] z2g2f2d2 | 
[V:4] G,4z4 | 
[V:1] c2e2f2g2- | 
[V:2] A2G2A2B2- | 
[V:3] e4d4- | 
[V:4] z4z2G,2 | 
[V:1] g2fedcf2- | 
[V:2] B2AGG2F2 | 
[V:3] d4z4 | 
[V:4] G,3A,B,CD2- | 
[V:1] f2edcBc2 | 
[V:2] DEFGA2F2 | 
[V:3] z2c2c3d | 
[V:4] D2CB,A,4 | 
[V:1] B2e3dc2- | 
[V:2] G2B4AG | 
[V:3] efg2g2fe | 
[V:4] G,4E,2F,2 | 
[V:1] c2B2c4- | 
[V:2] G3F/G/A2G2 | 
[V:3] d4c4- | 
[V:4] G,4C,4- | 
[V:1] c8- | 
[V:2] E8 | 
[V:3] c8- | 
[V:4] C,8- | 
[V:1] c8 |]  
[V:2] E8 |]  
[V:3] c8 |]  
[V:4] C,8 |]  



